img/footer-wave.svg

<?xml version="1.0" encoding="utf-8"?>
<!-- Generator: Adobe Illustrator 27.0.0, SVG Export Plug-In . SVG Version: 6.00 Build 0)  -->
<svg version="1.1" id="visual" xmlns="http://www.w3.org/2000/svg" xmlns:xlink="http://www.w3.org/1999/xlink" x="0px" y="0px"
	 viewBox="0 0 900 200" style="enable-background:new 0 0 900 200;" xml:space="preserve">
<style type="text/css">
	.st0{fill:#FDD76B;}
</style>
<path class="st0" d="M0,119l18.8,0.3c18.9,0.4,56.5,1,94,4.2s74.9,8.8,112.4,14.2c37.5,5.3,75.1,10.3,112.6,10.6
	c37.5,0.4,74.9-4,112.4-7.6c37.5-3.7,75.1-6.7,112.6-10.2s74.9-7.5,112.4-9.8c37.5-2.4,75.1-3,112.6-0.2s74.9,9.2,93.5,12.3L900,136
	v65h-18.7c-18.6,0-56,0-93.5,0s-75.1,0-112.6,0s-74.9,0-112.4,0s-75.1,0-112.6,0s-74.9,0-112.4,0s-75.1,0-112.6,0s-74.9,0-112.4,0
	s-75.1,0-94,0H0V119z"/>
</svg>

<svg id="visual" viewBox="0 0 900 200" width="900" height="200" xmlns="http://www.w3.org/2000/svg" xmlns:xlink="http://www.w3.org/1999/xlink" version="1.1"><path d="M0 119L18.8 119.3C37.7 119.7 75.3 120.3 112.8 123.5C150.3 126.7 187.7 132.3 225.2 137.7C262.7 143 300.3 148 337.8 148.3C375.3 148.7 412.7 144.3 450.2 140.7C487.7 137 525.3 134 562.8 130.5C600.3 127 637.7 123 675.2 120.7C712.7 118.3 750.3 117.7 787.8 120.5C825.3 123.3 862.7 129.7 881.3 132.8L900 136L900 201L881.3 201C862.7 201 825.3 201 787.8 201C750.3 201 712.7 201 675.2 201C637.7 201 600.3 201 562.8 201C525.3 201 487.7 201 450.2 201C412.7 201 375.3 201 337.8 201C300.3 201 262.7 201 225.2 201C187.7 201 150.3 201 112.8 201C75.3 201 37.7 201 18.8 201L0 201Z" fill="#613191" stroke-linecap="round" stroke-linejoin="miter"></path></svg>
